X: 19826
T: Jerry Holland's 50th Birthday
R: reel
M: 4/4
K: Cmajor
G,CEG c2eg|agec Bdfa|g/a/g ec A/B/c Gc|ecgc ed dz|
G,CEG c2EG|cdeg aAAa|g/a/g ec Acfa|1 gedf ec cz:|2 gedf ecef||
|:gc c/c/c gcac|gcec def2|gc c/c/c (3gag eg|agec de fa|
gc c/c/c gcac|gcec defa|gz FA dfaf|1 gedf ecef:|2 gedf ec cz||

